icons/Grid_Biogas.svg

<svg width="16" height="16" viewBox="0 0 16 16" fill="currentColor" xmlns="http://www.w3.org/2000/svg">
<g clip-path="url(#clip0_4_432)">
<path d="M11.6558 12.1863C12.0526 12.3563 11.9959 12.6397 11.6558 12.7531C11.3724 12.6964 11.1457 12.6397 10.919 12.583C10.1822 12.2429 9.61535 11.6761 9.21859 10.996C8.76515 10.2025 8.25502 9.46562 7.68822 8.72877C7.4615 8.44537 7.00806 8.33201 6.72466 8.04861C6.55462 7.93525 6.3279 7.82189 6.44126 7.53849C6.6113 7.25509 6.83802 7.36845 6.95138 7.42513C7.68822 7.65185 8.25502 8.16197 8.65179 8.84214C8.93519 9.29558 9.21859 9.74902 9.55867 10.2591C9.72871 7.93525 7.29146 6.40489 5.13761 6.17817C5.47769 7.65185 5.81778 9.12554 6.83802 10.2591C7.29146 10.7693 7.85826 11.2227 8.65179 11.166C8.76515 11.166 9.10523 11.166 9.04855 11.4494C9.04855 11.6195 8.82183 11.7328 8.70847 11.7328C7.85826 11.8462 7.1781 11.5628 6.55462 10.8826C5.25097 9.46562 4.79753 7.76521 4.40077 6.00813C4.28741 5.498 4.45745 5.27128 4.96757 5.44132C5.81778 5.66804 6.66798 5.83808 7.40482 6.17817C8.99187 6.91501 10.0121 8.10529 10.1822 9.91906V10.5425C10.1255 11.2227 10.2388 11.5061 10.8623 11.7895C11.089 11.9595 11.3724 12.0162 11.6558 12.1863V12.1863Z" fill="#3D3D3D"/>
<path d="M13.9231 15.8705H2.02024C1.45344 15.8705 1 15.417 1 14.8502V2.94738C1 2.38058 1.45344 1.92714 2.02024 1.92714H13.9231C14.4899 1.92714 14.9433 2.38058 14.9433 2.94738V4.93119C14.9433 5.04455 14.83 5.15791 14.7166 5.15791C14.6032 5.15791 14.4899 5.04455 14.4899 4.93119V2.94738C14.4899 2.6073 14.2065 2.3239 13.8664 2.3239H2.02024C1.68016 2.3239 1.39676 2.6073 1.39676 2.94738V14.7935C1.39676 15.1336 1.68016 15.417 2.02024 15.417H13.9231C14.2632 15.417 14.5466 15.1336 14.5466 14.7935V8.10528C14.5466 7.99192 14.6599 7.87856 14.7733 7.87856C14.8866 7.87856 15 7.99192 15 8.10528V14.7935C14.9433 15.417 14.4899 15.8705 13.9231 15.8705Z" fill="#3D3D3D"/>
<path d="M3.04055 2.21054C2.98387 2.21054 2.92719 2.21054 2.87051 2.15386C2.75715 2.09718 2.75715 1.92714 2.87051 1.87046C2.92719 1.81378 4.68428 -0.0566711 7.97173 -0.0566711C11.4859 -0.0566711 13.0163 1.81378 13.0729 1.87046C13.1296 1.98382 13.1296 2.09718 13.0163 2.15386C12.9029 2.21054 12.7895 2.21054 12.7329 2.09718C12.7329 2.09718 11.2592 0.34009 7.97173 0.34009C4.911 0.34009 3.21059 2.09718 3.21059 2.09718C3.15391 2.21054 3.09723 2.21054 3.04055 2.21054Z" fill="#3D3D3D"/>
</g>
<defs>
<clipPath id="clip0_4_432">
<rect width="16" height="16" fill="white"/>
</clipPath>
</defs>
</svg>

<svg xmlns="http://www.w3.org/2000/svg" width="16" height="16" fill="currentColor" class="si si-Grid_Biogas" viewBox="0 0 16 16">
  <g clip-path="url(#a)">
    <path d="M11.656 12.186c.397.17.34.454 0 .567-.284-.057-.51-.113-.737-.17-.737-.34-1.304-.907-1.7-1.587a20 20 0 0 0-1.53-2.267c-.228-.284-.68-.397-.964-.68-.17-.114-.397-.227-.284-.51.17-.284.397-.17.51-.114.737.227 1.304.737 1.7 1.417.284.454.568.907.908 1.417.17-2.324-2.268-3.854-4.421-4.08.34 1.473.68 2.947 1.7 4.08.453.51 1.02.964 1.814.907.113 0 .453 0 .397.283 0 .17-.227.284-.34.284-.85.113-1.53-.17-2.154-.85C5.25 9.466 4.798 7.765 4.4 6.008c-.114-.51.056-.737.567-.567.85.227 1.7.397 2.437.737 1.587.737 2.607 1.927 2.777 3.741v.624c-.056.68.057.963.68 1.247.227.17.51.226.794.396"/>
    <path d="M13.923 15.87H2.02c-.567 0-1.02-.453-1.02-1.02V2.947c0-.566.453-1.02 1.02-1.02h11.903c.567 0 1.02.454 1.02 1.02v1.984a.244.244 0 0 1-.226.227.244.244 0 0 1-.227-.227V2.947a.63.63 0 0 0-.624-.623H2.02a.63.63 0 0 0-.623.623v11.846c0 .34.283.624.623.624h11.903a.63.63 0 0 0 .624-.623V8.105c0-.113.113-.226.226-.226.114 0 .227.113.227.226v6.688c-.057.624-.51 1.078-1.077 1.078"/>
    <path d="M3.04 2.21c-.056 0-.113 0-.17-.056-.113-.057-.113-.227 0-.284.057-.056 1.814-1.927 5.102-1.927 3.514 0 5.044 1.87 5.1 1.927.058.114.058.227-.056.284-.113.057-.226.057-.283-.057 0 0-1.474-1.757-4.761-1.757C4.91.34 3.21 2.097 3.21 2.097c-.057.114-.114.114-.17.114"/>
  </g>
  <defs>
    <clipPath id="a">
      <path d="M0 0h16v16H0z"/>
    </clipPath>
  </defs>
</svg>
